public/assets/images/settingsOutline-inverse.svg

<svg width="24" height="24" viewBox="0 0 24 24" fill="none" xmlns="http://www.w3.org/2000/svg">
<path d="M9.24922 22L8.84922 18.8C8.63255 18.7167 8.42839 18.6167 8.23672 18.5C8.04505 18.3833 7.85755 18.2583 7.67422 18.125L4.69922 19.375L1.94922 14.625L4.52422 12.675C4.50755 12.5583 4.49922 12.4458 4.49922 12.3375V11.6625C4.49922 11.5542 4.50755 11.4417 4.52422 11.325L1.94922 9.375L4.69922 4.625L7.67422 5.875C7.85755 5.74167 8.04922 5.61667 8.24922 5.5C8.44922 5.38333 8.64922 5.28333 8.84922 5.2L9.24922 2H14.7492L15.1492 5.2C15.3659 5.28333 15.5701 5.38333 15.7617 5.5C15.9534 5.61667 16.1409 5.74167 16.3242 5.875L19.2992 4.625L22.0492 9.375L19.4742 11.325C19.4909 11.4417 19.4992 11.5542 19.4992 11.6625V12.3375C19.4992 12.4458 19.4826 12.5583 19.4492 12.675L22.0242 14.625L19.2742 19.375L16.3242 18.125C16.1409 18.2583 15.9492 18.3833 15.7492 18.5C15.5492 18.6167 15.3492 18.7167 15.1492 18.8L14.7492 22H9.24922ZM10.9992 20H12.9742L13.3242 17.35C13.8409 17.2167 14.3201 17.0208 14.7617 16.7625C15.2034 16.5042 15.6076 16.1917 15.9742 15.825L18.4492 16.85L19.4242 15.15L17.2742 13.525C17.3576 13.2917 17.4159 13.0458 17.4492 12.7875C17.4826 12.5292 17.4992 12.2667 17.4992 12C17.4992 11.7333 17.4826 11.4708 17.4492 11.2125C17.4159 10.9542 17.3576 10.7083 17.2742 10.475L19.4242 8.85L18.4492 7.15L15.9742 8.2C15.6076 7.81667 15.2034 7.49583 14.7617 7.2375C14.3201 6.97917 13.8409 6.78333 13.3242 6.65L12.9992 4H11.0242L10.6742 6.65C10.1576 6.78333 9.67839 6.97917 9.23672 7.2375C8.79505 7.49583 8.39089 7.80833 8.02422 8.175L5.54922 7.15L4.57422 8.85L6.72422 10.45C6.64089 10.7 6.58255 10.95 6.54922 11.2C6.51589 11.45 6.49922 11.7167 6.49922 12C6.49922 12.2667 6.51589 12.525 6.54922 12.775C6.58255 13.025 6.64089 13.275 6.72422 13.525L4.57422 15.15L5.54922 16.85L8.02422 15.8C8.39089 16.1833 8.79505 16.5042 9.23672 16.7625C9.67839 17.0208 10.1576 17.2167 10.6742 17.35L10.9992 20ZM12.0492 15.5C13.0159 15.5 13.8409 15.1583 14.5242 14.475C15.2076 13.7917 15.5492 12.9667 15.5492 12C15.5492 11.0333 15.2076 10.2083 14.5242 9.525C13.8409 8.84167 13.0159 8.5 12.0492 8.5C11.0659 8.5 10.2367 8.84167 9.56172 9.525C8.88672 10.2083 8.54922 11.0333 8.54922 12C8.54922 12.9667 8.88672 13.7917 9.56172 14.475C10.2367 15.1583 11.0659 15.5 12.0492 15.5Z" fill="var(--ion-color-inverse-primary)"/>
</svg>

<svg width="24" height="24" fill="none" xmlns="http://www.w3.org/2000/svg"><path d="M9.25 22l-.4-3.2a3.79 3.79 0 01-.613-.3 8.266 8.266 0 01-.563-.375L4.7 19.375l-2.75-4.75 2.575-1.95a2.387 2.387 0 01-.025-.338v-.675c0-.108.009-.22.025-.337L1.95 9.375l2.75-4.75 2.975 1.25c.184-.133.375-.258.575-.375.2-.117.4-.217.6-.3l.4-3.2h5.5l.4 3.2c.217.083.421.183.613.3.191.117.379.242.562.375l2.975-1.25 2.75 4.75-2.575 1.95c.017.117.025.23.025.338v.675c0 .108-.016.22-.05.337l2.575 1.95-2.75 4.75-2.95-1.25a6.826 6.826 0 01-.575.375c-.2.117-.4.217-.6.3l-.4 3.2h-5.5zM11 20h1.974l.35-2.65c.517-.133.996-.33 1.438-.588a5.97 5.97 0 001.212-.937l2.475 1.025.975-1.7-2.15-1.625c.084-.233.142-.48.175-.738a6.135 6.135 0 000-1.575 3.522 3.522 0 00-.175-.737l2.15-1.625-.975-1.7-2.475 1.05a5.551 5.551 0 00-1.212-.962 5.604 5.604 0 00-1.438-.588L13 4h-1.975l-.35 2.65c-.516.133-.996.33-1.437.587-.442.259-.846.571-1.213.938L5.55 7.15l-.975 1.7 2.15 1.6c-.083.25-.141.5-.175.75-.033.25-.05.517-.05.8 0 .267.017.525.05.775.034.25.092.5.175.75l-2.15 1.625.975 1.7 2.475-1.05c.367.383.771.704 1.213.962.441.259.92.455 1.437.588L11 20zm1.05-4.5c.966 0 1.79-.342 2.474-1.025A3.372 3.372 0 0015.55 12c0-.967-.341-1.792-1.025-2.475A3.372 3.372 0 0012.05 8.5c-.983 0-1.812.342-2.487 1.025A3.393 3.393 0 008.549 12c0 .967.338 1.792 1.013 2.475.675.683 1.504 1.025 2.487 1.025z" fill="var(--ion-color-inverse-primary)"/></svg>
